X:1
T:Title
%%score { ( 1 3 ) | ( 2 4 ) }
L:1/8
Q:1/4=100
M:4/4
K:F
V:1 treble nm="Grand Piano"
V:3 treble 
V:2 bass 
V:4 bass 
V:1
 F>F .F2 A>A .A2 | [Ff]6 =B2 | [Ec]8- | [Ec]4 z2 F>A | c6 z2 | A6 z2 | z2 D>D .D>G A>B | %7
w: Asa~Hull * * * * *|||||||
 d2 D>D .D2 A>B | c6 z2 | A6 z2 | F>[Af] [Af]>[Af] [Ge]2 [=B,Fd]2 |[M:3/4] [CEc]6 | %12
w: |||||
 z2 [GB]2 [GB]2 | [GB]2 [FA]2 .[FA]2 | [Ac]2 [GB]2 [GB]2 | [GB]2 A2 .A2 | c>c e2- [Be]2 | %17
w: |||||
 .[Be]2 .[Af]2 .[Af]2 | z2 .B2 z2 | [Be]e [Af]2 [Af]2 | f>e [Bd]2 [DB]2 | [Fd]2 [Ac]2 [FA]2 | %22
w: |||||
 [Ac]2 [GB]2 [EG]2 | [GB]2 [FA]>B [CAc]2 | c>c [df]2 [ce]2 | [Bd]2 [Bd]c [Ac]2 | %26
w: ||||
 [CFA]c [CAc]B [GB]2 | [EG]2 F2 .F2 |[M:4/4] z2 F>F .F2 A>A | .A2 [Ff]6 | =B2 [Ec]6- | [Ec]6 z2 | %32
w: ||||||
 z2 c6 | z2 A6 | A>G z2 D>D .D>G | A>B d2 D>D .D2 | z2 c6 | z2 A6 | A>G F>[Af] [Af]>[Af] [Ge]2 | %39
w: |||||||
[M:3/4] [=B,Fd]2 [CEc]4- |[M:1/4] [CEc]2 |[M:3/4] z2 [GB]2 [GB]2 | [GB]2 [FA]2 .[FA]2 | %43
w: ||||
 [Ac]2 [GB]2 [GB]2 | [GB]2 A2 .A2 | c>c e2- [Be]2 | .[Be]2 .[Af]2 .[Af]2 | z2 .B2 z2 | %48
w: |||||
 [Be]e [Af]2 [Af]2 | f>e [Bd]2 [DB]2 | [Fd]2 [Ac]2 [FA]2 | [Ac]2 [GB]2 [EG]2 | %52
w: ||||
 [GB]2 [FA]>B [CAc]2 | c>c [df]2 [ce]2 | [Bd]2 [Bd]c [Ac]2 | [CFA]c [CAc]B .[CGB]2 | %56
w: ||||
[M:2/4] .[B,EG]2 [A,CF]2 |[M:1/4] [A,CF]2 | [Ac]>[Ac] |[M:3/4] [df]2 [ce]2 [Bd]2 | %60
w: ||||
 [Bd]c [Ac]2 [FA][Ac] | [Ac][GB] [GB]2 [EG][GB] | [GB]A .[CFA]2 [Ac]>[Ac] | [df]2 [ce]2 [Bd]2 | %64
w: ||||
 [Bd]c [Ac]2 [FA][Ac] | [Ac]B [CGB]2 [B,EG]2 | .[A,F]2 .[A,CF]2 [CEG]2 | [CFA]3 [CEG] [CFA][CFB] | %68
w: ||||
 [CFc]2 [CFA]2 [CFc]2 | [DFB]2 [CFA]2 [CEG]2 | [CFA]4 [CEG]2 | [CFA]3 [CEG] [CFA][CFB] | %72
w: ||||
 [CFc]2 [CFA]2 [CFc]2 | [DGB]2 [CFA]2 [B,EG]2 | [A,F]6 |] %75
w: |||
V:2
 [F,A,C]>[F,A,C] .[F,A,C]2 [F,CF]>[F,CF] .[F,CF]2 | [D,D]6 [G,F]2 | [C,G,]8- | [C,G,]4 z4 | %4
 z2 [F,A,]>[F,A,] .[F,A,]2 z2 | z2 [F,C]>[F,C] .[F,C]2 z2 | z2 [D,A,]>[D,A,] .[D,A,]2 z2 | %7
 z2 [B,,B,]>[B,,B,] .[B,,B,]2 z2 | z2 [F,A,]>[F,A,] .[F,A,]2 z2 | z2 [F,C]>[F,C] .[F,C]2 z2 | %10
 z z/ [F,C]/ [F,C]>[F,C] [G,C]2 G,,2 |[M:3/4] C,6 | c>c[K:bass] [C,C]2 [C,C]2 | %13
 [C,C]2 [F,C]2 .[F,C]2 | [F,C]2 [C,C]2 [C,C]2 | [C,C]2 [F,CF]2 .[F,CF]2 | z2 .[C,C]2 .[C,C]2 | %17
 [C,C][K:treble]e .C2[K:bass] .F,2 | F,2 .[C,C]2 .[C,C]2 | .[C,C]2 [F,C]2 [F,C]2 | %20
 A>c[K:bass] .[B,,B,]2 .[B,,B,]2 | .[B,,B,]2 .F,2 .F,2 | .[F,C]2 .[C,C]2 .[C,C]2 | %23
 .[C,C]2 z z/[K:treble] G/ F,2 | A>A[K:bass] .[B,,B,]2 .[B,,B,]2 | .[B,,B,]2 F,A .F,2 | %26
 F,A C,G .[C,C]2 | .[C,B,]2 [F,A,C]2 .[F,A,C]2 | %28
[M:4/4] z2 [F,A,C]>[F,A,C] .[F,A,C]2 [F,CF]>[F,CF] | .[F,CF]2 [D,D]6 | [G,F]2 [C,G,]6- | %31
 [C,G,]6 z2 | z4 [F,A,]>[F,A,] .[F,A,]2 | z4 [F,C]>[F,C] .[F,C]2 | z4 [D,A,]>[D,A,] .[D,A,]2 | %35
 z4 [B,,B,]>[B,,B,] .[B,,B,]2 | z4 [F,A,]>[F,A,] .[F,A,]2 | z4 [F,C]>[F,C] .[F,C]2 | %38
 z2 z z/ [F,C]/ [F,C]>[F,C] [G,C]2 |[M:3/4] G,,2 C,4- |[M:1/4] C,2 | %41
[M:3/4][K:treble] c>c[K:bass] [C,C]2 [C,C]2 | [C,C]2 [F,C]2 .[F,C]2 | [F,C]2 [C,C]2 [C,C]2 | %44
 [C,C]2 [F,CF]2 .[F,CF]2 | z2 .[C,C]2 .[C,C]2 | [C,C][K:treble]e .C2[K:bass] .F,2 | %47
 F,2 .[C,C]2 .[C,C]2 | .[C,C]2 [F,C]2 [F,C]2 | A>c[K:bass] .[B,,B,]2 .[B,,B,]2 | %50
 .[B,,B,]2 .F,2 .F,2 | .[F,C]2 .[C,C]2 .[C,C]2 | .[C,C]2 z z/[K:treble] G/ F,2 | %53
 A>A[K:bass] .[B,,B,]2 .[B,,B,]2 | .[B,,B,]2 F,A .F,2 | F,A C,G .C,2 |[M:2/4] .C,2 F,2 | %57
[M:1/4] F,2 | F,>F, |[M:3/4] [B,,B,]2 [B,,B,]2 [B,,B,]2 | z A F,2 [F,C]2 | [C,C]2 [C,C]2 [C,C]2 | %62
 [F,C]2 z2 z2 | [B,,B,]2 [B,,B,]2 [B,,B,]2 | z A F,2 [F,C]2 | z G C,2 C,2 | .F,2 .F,2 C,2 | %67
 F,3 C, F,G, | A,2 F,2 A,,2 | B,,2 C,2 C,2 | F,4 C,2 | F,3 C, F,G, | A,2 F,2 A,,2 | B,,2 C,2 C,2 | %74
 F,6 |] %75
V:3
 x8 | x8 | x8 | x8 | z2 F>F .F>d c>B | z2 F>F .F>B A>G | F6 z2 | z2 G4 z2 | z2 F>F .F>d c>B | %9
 z2 F>F .F2 A>G | x8 |[M:3/4] x6 | x6 | x6 | x6 | x6 | z2 .B2 z2 | x6 | [CAc]2 e2- [Be]2 | x6 | %20
 x6 | x6 | x6 | x6 | x6 | x6 | x6 | x6 |[M:4/4] x8 | x8 | x8 | x8 | F>A z2 F>F .F>d | %33
 c>B z2 F>F .F>B | z2 F6 | z4 G4 | A>B z2 F>F .F>d | c>B z2 F>F .F2 | x8 |[M:3/4] x6 |[M:1/4] x2 | %41
[M:3/4] x6 | x6 | x6 | x6 | z2 .B2 z2 | x6 | [CAc]2 e2- [Be]2 | x6 | x6 | x6 | x6 | x6 | x6 | x6 | %55
 x6 |[M:2/4] x4 |[M:1/4] x2 | x2 |[M:3/4] x6 | x6 | x6 | x6 | x6 | x6 | x6 | x6 | x6 | x6 | x6 | %70
 x6 | x6 | x6 | x6 | x6 |] %75
V:4
 x8 | x8 | x8 | x8 | x8 | x8 | x8 | x8 | x8 | x8 | x8 |[M:3/4] x6 | x2[K:bass] x4 | x6 | x6 | x6 | %16
 x6 | x[K:treble] x3[K:bass] x2 | x6 | x6 | x2[K:bass] x4 | x6 | x6 | z2 [F,C]2[K:treble] z2 | %24
 x2[K:bass] x4 | x6 | x6 | x6 |[M:4/4] x8 | x8 | x8 | x8 | x8 | x8 | x8 | x8 | x8 | x8 | x8 | %39
[M:3/4] x6 |[M:1/4] x2 |[M:3/4][K:treble] x2[K:bass] x4 | x6 | x6 | x6 | x6 | %46
 x[K:treble] x3[K:bass] x2 | x6 | x6 | x2[K:bass] x4 | x6 | x6 | z2 [F,C]2[K:treble] z2 | %53
 x2[K:bass] x4 | x6 | x6 |[M:2/4] x4 |[M:1/4] x2 | x2 |[M:3/4] x6 | F,2 z2 z2 | x6 | %62
 z F .F,2 F,>F, | x6 | F,2 z2 z2 | [C,C]2 z2 z2 | x6 | x6 | x6 | x6 | x6 | x6 | x6 | x6 | x6 |] %75

